src/components/images/icons/psychic.svg

<svg width="512" height="512" fill="none" xmlns="http://www.w3.org/2000/svg"><path fill-rule="evenodd" clip-rule="evenodd" d="M455.925 425.184s-64.56 51.779-193.032 30.352c-97.47-16.257-149.456-123.703-149.456-181.457 0-136.93 101.346-168.091 169.863-168.091 68.516 0 113.213 66.8 113.213 118.52s-36.58 96.958-93.507 96.958c-56.926 0-73.786-39.965-73.786-76.708 0-36.742 29.727-49.687 56.838-49.687s36.394 23.146 36.394 43.039c0 19.894-15.435 27.018-28.309 27.018s-14.147-6.495-19.074-13.321c-4.928-6.825 6.284-32.661-12.176-32.661s-21.901 29.701-21.901 29.701 6.73 57.333 62.014 56.344c55.285-.99 81.512-43.73 73.89-86.045-7.622-42.316-48.689-87.281-120.763-78.195-72.074 9.086-101.501 81.91-88.53 159.734 12.971 77.825 106.204 122.917 179.509 106.694 73.306-16.223 146.317-69.293 146.317-203.846 0-134.554-116.533-215.433-255.488-202.104C98.986 14.76 12.729 136.242 18.251 282.207c5.52 145.965 144.024 225.462 261.143 229.559 117.119 4.098 188.918-63.699 188.918-63.699s16.147-14.399 9.816-25.643c-6.33-11.244-22.203 2.76-22.203 2.76z" fill="#fff"/></svg>

<svg width="512" height="512" viewBox="0 0 512 512" fill="none" xmlns="http://www.w3.org/2000/svg">
<path fill-rule="evenodd" clip-rule="evenodd" d="M455.925 425.184C455.925 425.184 391.365 476.963 262.893 455.536C165.423 439.279 113.437 331.833 113.437 274.079C113.437 137.149 214.783 105.988 283.3 105.988C351.816 105.988 396.513 172.788 396.513 224.508C396.513 276.228 359.933 321.466 303.006 321.466C246.08 321.466 229.22 281.501 229.22 244.758C229.22 208.016 258.947 195.071 286.058 195.071C313.169 195.071 322.452 218.217 322.452 238.11C322.452 258.004 307.017 265.128 294.143 265.128C281.269 265.128 279.996 258.633 275.069 251.807C270.141 244.982 281.353 219.146 262.893 219.146C244.433 219.146 240.992 248.847 240.992 248.847C240.992 248.847 247.722 306.18 303.006 305.191C358.291 304.201 384.518 261.461 376.896 219.146C369.274 176.83 328.207 131.865 256.133 140.951C184.059 150.037 154.632 222.861 167.603 300.685C180.574 378.51 273.807 423.602 347.112 407.379C420.418 391.156 493.429 338.086 493.429 203.533C493.429 68.9789 376.896 -11.9002 237.941 1.42913C98.9859 14.7584 12.729 136.242 18.2502 282.207C23.7714 428.172 162.275 507.669 279.394 511.766C396.513 515.864 468.312 448.067 468.312 448.067C468.312 448.067 484.459 433.668 478.128 422.424C471.798 411.18 455.925 425.184 455.925 425.184Z" fill="white"/>
</svg>
